X: 785
T: Fiddlers' Heaven.
C:Delaney.
B:O'Neill's Music of Ireland
N:O'Neill's - 785
Z:Transcribed by Stephen Foy (shf@access.digex.net)
Z:abc 1.6
M:6/8
R:Jig
K:Amix
B/c/|dAF FEF|ded dfe|dAF FEF|AFE EFA|\
dAF FEF|ded def|ecA BAF|EAA A2:|
||c/d/|ecA AcA|ecA A2 c/d/|ecA BAG|AFE E2 c/d/|\
ecA AcA|ecA d2 B|cAF EFA|BAA A2:|


